X: 1
T: Milky Way, The
M: 4/4
L: 1/8
R: reel
K: D Major
|: D2 F/E/D FAA2 | defd efd2 | D2 F/E/D FA~A2 | BF~F2 BFAF |
D2 F/E/D FAA2 | defd ef d2 | efdB BAFB |[1 AFEG FDDE :|[2 AFEG FD D2 ||
|: efdB BAFA | defd ef d2 | efdB BAFB | AFEG FD D2 |
efdB BAFA | defd efde | f2 df efdB |[1 AFEG FD D2 :|[2 AFEG FDDE |]
